!!!COM:	Josquin des Pres
**kern	**kern
*part2	*part1
*staff2	*staff1
*clefG2	*clefG2
*k[]	*k[]
*M2/1	*M2/1
=1-	=1-
[1a	(<0a
2a]	.
2g	.
=2	=2
1f	1a)
1e	1g
=3	=3
1d	0f
[1A	.
=4	=4
2A]	0e
2B	.
1c	.
=5	=5
1d	0d
[1f	.
=6	=6
2f]	(<0A
2e	.
2.c	.
4d	.
=7	=7
2e	1A)
[2f	.
4f]	1B
4d	.
[2g	.
=8	=8
4g]	0c
4f	.
4e	.
4d	.
1e	.
=9	=9
[1f	0d
2f]	.
2d	.
=10	=10
1d	(<0f
1r	.
=11	=11
1a	1f)
2b	1e
[2cc	.
=12	=12
4cc]	1.c
4b	.
2a	.
2g	.
2f	2d
=13	=13
1g	1e
2r	(<1f
2f	.
=14	=14
2d	2f)
2f	2d
4e	(<1g
4d	.
4c	.
4B	.
=15	=15
2c	2g)
2d	2f
2A	2e
2B	2d
=16	=16
2c	0e
[2d	.
2d]	.
2c	.
=17	=17
[1d	(<0f
1d_	.
=18	=18
1d_	1f)
1d_	1d
=19	=19
1d_	0d
1d]	.
==	==
*-	*-
!!!RDF**kern: < = below
